!!!OTL: Der Mordknecht Ess reyt eyn Herr und auch sein Knecht
!!!ARE: Europa, Mitteleuropa, Deutschland
!!!YOR: 2, S. 41  Komponist: Nicolai
!!    1777 gedruckt in Berlin und Stettin
!!!SCT: Q0037
!!!YEM: Copyright 1995, estate of Helmut Schaffrath.
**kern
*ICvox
*Ivox
*M4/4
*k[b-e-a-d-g-c-]
*e-:
{4b-
=1
4ee-
4dd-
4cc-
4b-
=2
4a-
4g-
4f}
{4ee-
=3
4ff
4gg-
4ff
4ee-
=4
4dd-
4cc-
4b-
4cc-
=5
2b-
4r}
{4b-
=6
4dd-
4cc-
4b-
4a-
=7
4g-
4f-
4e-}
{4a-
=8
4cc-
4b-
4a-
4g-
=9
2f
4e-
4b-
=10
2f
4e-}
==
!!!AGN: Ballade, Eifersucht, Mord; parodistisch
!! Keine ueberlieferte Melodie: Komposition mit parodistischer Absicht.
!!    Anhaengsel in der zweiten und letzten  Zeile.
!!!ONB: ESAC (Essen Associative Code) Database: BALLADE
!!!AMT: simple quadruple
!!!AIN: vox
!!!EED: Helmut Schaffrath
!!!EEV: 1.0
*-
